X: 1
T: Cache tes fesses
T: Cover your ass
O: Quebec
S: MP3 file from Tom Faux (QueTrad newsgroup) 2007-11-30
R: reel
Z: 2007 John Chambers <jc@trillian.mit.edu>
M: 3/4
L: 1/8
K: D
|: fa gb ag/f/ | ef gb a>g | fa gb ag/f/ | dg fe d2 :|
|: Ad cd e2-   | ea gf e2  | Ad cd e2-   | ea df d2 :|
